packages/core/src/svgs/tokens/mono/PLASTIK.svg

<svg width="24" height="24" viewBox="0 0 24 24" fill="none" xmlns="http://www.w3.org/2000/svg">
<path d="M22 12.0031C21.9993 14.3103 21.2007 16.5463 19.7397 18.3321C18.2788 20.1178 16.2451 21.3435 13.9839 21.8011C11.7224 22.2589 9.37233 21.9206 7.3319 20.8436C5.29147 19.7665 3.68624 18.0171 2.78833 15.8917C1.89043 13.7663 1.75508 11.3958 2.40525 9.18208C3.0554 6.96832 4.45106 5.04751 6.35565 3.74521C8.26023 2.44292 10.5565 1.83931 12.8554 2.03666C15.1542 2.23402 17.3139 3.22021 18.9687 4.82806L17.625 6.14681C16.2227 4.7971 14.3826 3.99561 12.4392 3.88811C10.4958 3.78062 8.57851 4.3743 7.03595 5.56114C5.49337 6.74797 4.42809 8.44909 4.03389 10.355C3.63969 12.261 3.94276 14.2451 4.88796 15.9465C5.83316 17.6478 7.3577 18.9535 9.18421 19.6256C11.0108 20.2979 13.0179 20.2921 14.8405 19.6094C16.6631 18.9266 18.1802 17.6124 19.1156 15.9055C20.0509 14.1989 20.3426 12.2129 19.9375 10.3094L15.1874 14.9967L14.9375 15.2343V15.2468C14.3089 15.816 13.5286 16.1902 12.6912 16.3241C11.854 16.4578 10.9959 16.3455 10.2212 16.0006C9.44656 15.6557 8.7889 15.0931 8.32813 14.3813C7.86735 13.6695 7.62336 12.8391 7.62581 11.9913C7.62828 11.1432 7.87708 10.3143 8.34197 9.60514C8.80687 8.89608 9.46785 8.33734 10.2444 7.99692C11.021 7.65652 11.8798 7.54913 12.7163 7.6878C13.5528 7.82649 14.3309 8.20526 14.9563 8.77806L13.6124 10.0967C13.2475 9.78772 12.8016 9.58968 12.3275 9.52639C11.8534 9.4631 11.3711 9.53718 10.9378 9.73959C10.5046 9.94215 10.1385 10.2647 9.88304 10.6691C9.62754 11.0735 9.49352 11.5427 9.49673 12.0209C9.49979 12.4992 9.64008 12.9664 9.90083 13.3675C10.1616 13.7684 10.5318 14.0861 10.9677 14.2829C11.4036 14.4797 11.8869 14.5474 12.3602 14.4778C12.8332 14.4083 13.2766 14.2044 13.6375 13.8906L13.8563 13.6718L13.9624 13.5468L16.3 11.2342V11.2593L19.2561 8.35306V8.3468L20.6437 6.97182C21.5343 8.49875 22.0025 10.2353 22 12.0031Z" fill="white"/>
</svg>

<svg xmlns="http://www.w3.org/2000/svg" width="24" height="24" fill="none" viewBox="0 0 24 24">
    <path fill="#fff" d="M22 12.003a10 10 0 1 1-3.031-7.175l-1.344 1.319a8.125 8.125 0 1 0 2.313 4.162l-4.75 4.688-.25.237v.013a4.376 4.376 0 1 1 .018-6.469l-1.344 1.319a2.5 2.5 0 1 0 .025 3.794l.22-.22.105-.124 2.338-2.313v.025l2.956-2.906v-.006l1.388-1.375A9.96 9.96 0 0 1 22 12.003"/>
</svg>
